!!!!SEGMENT: pl-kk--kk-i-7--090_anonim--gaude-maria-virgo.krn
!!!cenid: 16xx:929
!!!COM: Anonim
!!!COM-rism: pe30004985
!!!CDT:
!!!CNT:
!!!OTL: Gaude Maria virgo
!!!PDT:
!!!AGN: Sacred
!!!SMS-siglum: PL-Kk
!!!SMS-shelfmark: Kk.I.7
!!!NIFC-rismID: 300258167
!!!URL-scan: http://repozytorium.nifc.pl/skany/pl-kk-nut--i-7
!!!ONB-nifc: UWAGA: C (brak), A (brak), T (0236-0237, s.135-136), B (0324, s.134-135). Następny utwór: Laetare Jerusalem
!!!SMS-variant:
!!!SMS-altvar:
**kern	**text	**kern	**text	**kern	**kern
*part4	*part4	*part3	*part3	*part2	*part1
*staff4	*staff4	*staff3	*staff3	*staff2	*staff1
*I"BASSVS.	*	*I"TENOR.	*	*I"ALTVS.	*I"CANTVS.
*I'B	*	*I'T	*	*I'A	*I'C
*clefF4	*	*clefC4	*	*clefC4	*clefC3
*k[]	*	*k[]	*	*k[]	*k[]
*M2/1	*	*M2/1	*	*M2/1	*M2/1
*met(C|)	*	*met(C|)	*	*met(C|)	*met(C|)
=1-	=1-	=1-	=1-	=1-	=1-
!LO:TX:a:t=P:problem:przed kluczem inicjał G	!	!	!	!	!
!LO:TX:Bi:a:t=IV. \nPost rgesima \nTract(us).	!	!	!	!	!
!LO:TX:a:t=P:problem:napis "IV. \nPost 7gesima \nTract(us)." przed pięciolinią pierwszego systemu	!	!LO:TX:a:t=P:problem:przed kluczem inicjał G	!	!	!
!LO:TX:t=P:problem:kreska pseudotaktowa	!	!	!	!LO:TX:t=P:problem:brak głosu w źródle	!LO:TX:t=P:problem:brak głosu w źródle
0r	.	2G/	Gau-	0ryy	0ryy
!	!	!LO:TX:t=P:problem:kreska pseudotaktowa	!	!	!
.	.	2G/	-de	.	.
.	.	4A\	gau-	.	.
.	.	4G\	.	.	.
.	.	4A\	.	.	.
!	!	!LO:TX:t=P:problem:kreska pseudotaktowa	!	!	!
.	.	4B\	.	.	.
=2-	=2-	=2-	=2-	=2-	=2-
2C/	Gau-	4c\	.	0ryy	0ryy
.	.	4G/	.	.	.
!LO:TX:t=P:problem:kreska pseudotaktowa	!	!	!	!	!
2C/	-de	1c	.	.	.
4D/	Gau-	.	.	.	.
4C/	.	.	.	.	.
*	*	*2\right	*	*	*
4D/	.	2B\	.	.	.
!LO:TX:t=P:problem:kreska pseudotaktowa	!	!	!	!	!
4E/	.	.	.	.	.
=3-	=3-	=3-	=3-	=3-	=3-
4F\	.	2A,\	-de	0ryy	0ryy
4C/	.	.	.	.	.
!	!	!LO:TX:t=P:problem:kreska pseudotaktowa	!	!	!
1F	.	2A\	Ma-	.	.
.	.	4B\	.	.	.
.	.	4B\	-ri-	.	.
*2\right	*	*	*	*	*
2E,\	-de	1c\	-a	.	.
=4-	=4-	=4-	=4-	=4-	=4-
*	*ij	*	*	*	*
!LO:TX:t=P:problem:kreska pseudotaktowa	!	!	!	!	!
1D	Gau-	.	.	0ryy	0ryy
!	!	!LO:TX:t=P:problem:kreska pseudotaktowa	!	!	!
.	.	2B\	Vir-	.	.
2C,/	-de	1c	-go	.	.
*	*Xij	*	*	*	*
!LO:TX:t=P:problem:kreska pseudotaktowa	!	!	!	!	!
2c\	Ma-	.	.	.	.
=5-	=5-	=5-	=5-	=5-	=5-
2c\	-ri-	2rc	.	0ryy	0ryy
!LO:TX:t=P:problem:kreska pseudotaktowa	!	!	!	!	!
2Bn\	-a	2d\	Ma-	.	.
2A\	Vir-	2A\	-ri-	.	.
!LO:TX:t=P:problem:kreska pseudotaktowa	!	!	!	!	!
2A,\	-go	2A\	-a	.	.
=6-	=6-	=6-	=6-	=6-	=6-
4G\	gau-	2B\	Vir-	0ryy	0ryy
4F\	.	.	.	.	.
!	!	!LO:TX:t=P:problem:kreska pseudotaktowa	!	!	!
4G\	.	2G/	-go	.	.
!LO:TX:t=P:problem:kreska pseudotaktowa	!	!	!	!	!
4E\	.	.	.	.	.
4F\	.	2.c\	Gau-	.	.
4E\	.	.	.	.	.
4F\	.	.	.	.	.
!LO:TX:t=P:problem:kreska pseudotaktowa	!	!	!	!	!
4D\	.	4d\	.	.	.
=7-	=7-	=7-	=7-	=7-	=7-
4C/	.	4e\	.	0ryy	0ryy
4D/	.	4f\	.	.	.
4E/	.	2g\	.	.	.
!LO:TX:t=P:problem:kreska pseudotaktowa	!	!	!	!	!
4F/	.	.	.	.	.
2G\	.	1d	.	.	.
!LO:TX:t=P:problem:kreska pseudotaktowa	!	!	!	!	!
2G\	-de	.	.	.	.
=8-	=8-	=8-	=8-	=8-	=8-
!	!	!LO:TX:t=P:problem:kreska pseudotaktowa	!	!	!
2rF	.	1c	-de	0ryy	0ryy
!LO:TX:t=P:problem:kreska pseudotaktowa	!	!	!	!	!
2A\	Ma-	.	.	.	.
!	!	!LO:TX:t=P:problem:kreska pseudotaktowa	!	!	!
2E\	-ri-	00r	.	.	.
!LO:TX:t=P:problem:kreska pseudotaktowa	!	!	!	!	!
2E\	-a	.	.	.	.
=9-	=9-	=9-	=9-	=9-	=9-
2.F\	Vir-	.	.	0ryy	0ryy
!LO:TX:t=P:problem:kreska pseudotaktowa	!	!	!	!	!
4E\	.	.	.	.	.
2D/	.	.	.	.	.
!LO:TX:t=P:problem:kreska pseudotaktowa	!	!	!	!	!
!LO:SIC:v:t=custos G	!	!	!	!	!
2C/	.	.	.	.	.
!LO:LB:g=original	!	!	!	!	!
=10-	=10-	=10-	=10-	=10-	=10-
!LO:TX:t=P:problem:kreska pseudotaktowa	!	!	!	!	!
1G	.	.	.	0ryy	0ryy
2C,/	-go:	1G	cun-	.	.
1C/	cun-	.	.	.	.
=11-	=11-	=11-	=11-	=11-	=11-
.	.	2E/	-ctas	0ryy	0ryy
!LO:TX:t=P:problem:kreska pseudotaktowa	!	!	!	!	!
2AA/	ctas	2.A/	hae-	.	.
2.D/	hae-	.	.	.	.
.	.	4G/	-re-	.	.
!	!	!LO:TX:t=P:problem:kreska pseudotaktowa	!	!	!
!	!	!LO:TX:a:t=P:problem:za pięciolinią pierwszego systemu zapisane jest "Post rgesimam \nTract(us) \nIV."	!	!	!
!	!	!LO:SIC:v:t=custos B	!	!	!
.	.	2F/	-ses	.	.
!LO:TX:t=P:problem:kreska pseudotaktowa	!	!	!	!	!
4C/	-re-	.	.	.	.
!	!	!LO:LB:g=original	!	!	!
=12-	=12-	=12-	=12-	=12-	=12-
2BBn,/	-ſes	1B	cun-	0ryy	0ryy
*	*ij	*	*	*	*
1E	cun-	.	.	.	.
.	.	2G/	-ctas	.	.
!LO:TX:t=P:problem:kreska pseudotaktowa	!	!	!	!	!
2C/	-ctas	2.c\	hae-	.	.
=13-	=13-	=13-	=13-	=13-	=13-
2.F\	hae-	.	.	0ryy	0ryy
.	.	4B\	-re-	.	.
!	!	!LO:TX:t=P:problem:kreska pseudotaktowa	!	!	!
.	.	2A\	-ses	.	.
!LO:TX:t=P:problem:kreska pseudotaktowa	!	!	!	!	!
4E\	-re-	.	.	.	.
2D,\	-ſes	2d\	so-	.	.
*	*Xij	*	*	*	*
!LO:TX:t=P:problem:kreska pseudotaktowa	!	!	!	!	!
2G\	so-	4B\	-la	.	.
.	.	4B\	in-	.	.
=14-	=14-	=14-	=14-	=14-	=14-
2E\	-la	2e\	-te-	0ryy	0ryy
!LO:TX:t=P:problem:kreska pseudotaktowa	!	!	!	!	!
2C/	in-	2e\	-re-	.	.
2G\	-te-	2d\	-mi-	.	.
!LO:TX:t=P:problem:kreska pseudotaktowa	!	!LO:TX:t=P:problem:kreska pseudotaktowa	!	!	!
2A\	-re-	2c\	-ſti	.	.
=15-	=15-	=15-	=15-	=15-	=15-
2G\	-mi-	2r	.	0ryy	0ryy
!LO:TX:t=P:problem:kreska pseudotaktowa	!	!	!	!	!
2F\	.	2c\	quae	.	.
!LO:TX:t=P:problem:kreska pseudotaktowa	!	!	!	!	!
1G	.	2c\	Ga-	.	.
!	!	!LO:TX:t=P:problem:kreska pseudotaktowa	!	!	!
.	.	2B\	.	.	.
=16-	=16-	=16-	=16-	=16-	=16-
2C/	-sti	2c\	-brie-	0ryy	0ryy
!LO:TX:t=P:problem:kreska pseudotaktowa	!	!	!	!	!
2r	.	4B\	-lis	.	.
.	.	4B\	ar-	.	.
0r	.	2.A/	-chan-	.	.
.	.	4A/	-ge-	.	.
=17-	=17-	=17-	=17-	=17-	=17-
.	.	2G,/	-li	0ryy	0ryy
!	!	!LO:TX:t=P:problem:kreska pseudotaktowa	!	!	!
.	.	2C/	ar-	.	.
!LO:TX:t=P:problem:kreska pseudotaktowa	!	!	!	!	!
1rF	.	2F/	-chan-	.	.
.	.	2G/	.	.	.
=18-	=18-	=18-	=18-	=18-	=18-
2r	.	2A\	.	0ryy	0ryy
!LO:TX:t=P:problem:kreska pseudotaktowa	!	!	!	!	!
2G\	Quae	2B\	.	.	.
2G\	Ga-	2c\	.	.	.
!LO:TX:t=P:problem:kreska pseudotaktowa	!	!LO:TX:t=P:problem:kreska pseudotaktowa	!	!	!
2F#X\	-brie-	2A\	.	.	.
=19-	=19-	=19-	=19-	=19-	=19-
2G\	-lis	2B\	.	0ryy	0ryy
4E\	.	1c	.	.	.
!LO:TX:t=P:problem:kreska pseudotaktowa	!	!	!	!	!
4E\	ar-	.	.	.	.
2.D/	-chan-	.	.	.	.
!	!	!LO:TX:t=P:problem:kreska pseudotaktowa	!	!	!
.	.	2B\	-ge-	.	.
!LO:TX:t=P:problem:kreska pseudotaktowa	!	!	!	!	!
4D/	-ge-	.	.	.	.
=20-	=20-	=20-	=20-	=20-	=20-
!	!	!LO:TX:t=P:problem:kreska pseudotaktowa	!	!	!
2C,/	-li	1c	-li	0ryy	0ryy
1C	di-	.	.	.	.
.	.	1re	.	.	.
1D\	-ctis	.	.	.	.
=21-	=21-	=21-	=21-	=21-	=21-
.	.	2r	.	0ryy	0ryy
1E	cre-	1G	di-	.	.
!LO:TX:t=P:problem:kreska pseudotaktowa	!	!	!	!	!
!LO:SIC:v:t=custos D	!	!LO:TX:t=P:problem:kreska pseudotaktowa	!	!	!
2Fny\	-di-	2A/	-ctis	.	.
!LO:PB:g=original	!	!	!	!	!
=22-	=22-	=22-	=22-	=22-	=22-
*lig	*	*	*	*	*
1D	-di-	2B\	cre-	0ryy	0ryy
.	.	2c\	-di-	.	.
1E	.	1B	-di-	.	.
*Xlig	*	*	*	*	*
=23-	=23-	=23-	=23-	=23-	=23-
!LO:TX:t=P:problem:kreska pseudotaktowa	!	!	!	!	!
1AA	-sti	2A,/	-ſti,	0ryy	0ryy
.	.	2E/	dum	.	.
!LO:TX:t=P:problem:kreska pseudotaktowa	!	!	!	!	!
1r	.	2A\	Vir-	.	.
!	!	!LO:TX:t=P:problem:kreska pseudotaktowa	!	!	!
!	!	!LO:SIC:v:t=custos c	!	!	!
.	.	2B\	-go	.	.
!	!	!LO:LB:g=original	!	!	!
=24-	=24-	=24-	=24-	=24-	=24-
2rBB	.	1c	De-	0ryy	0ryy
!LO:TX:t=P:problem:kreska pseudotaktowa	!	!	!	!	!
2AA/	dum	.	.	.	.
2D\	Vir-	2A\	-um	.	.
!LO:TX:t=P:problem:kreska pseudotaktowa	!	!LO:TX:t=P:problem:kreska pseudotaktowa:między dwiema nutami połączonymi ligaturą	!	!	!
2E\	-go	[<2e\	et	.	.
=25-	=25-	=25-	=25-	=25-	=25-
!LO:TX:t=P:problem:kreska pseudotaktowa	!	!	!	!	!
1F	De-	2e]	.	0ryy	0ryy
.	.	1d	ho-	.	.
2E,\	-um	.	.	.	.
1A\	et	2c\	.	.	.
=26-	=26-	=26-	=26-	=26-	=26-
.	.	2B\	.	0ryy	0ryy
1G	Ho-	2B\	-mi-	.	.
.	.	2A,/	-nem	.	.
!	!	!LO:TX:t=P:problem:kreska pseudotaktowa	!	!	!
1F\	.	2A/	De-	.	.
=27-	=27-	=27-	=27-	=27-	=27-
.	.	2G,/	-um	0ryy	0ryy
!LO:TX:t=P:problem:kreska pseudotaktowa	!	!	!	!	!
2E\	.	2c\	et	.	.
(>4D\	.	2A\	Ho-	.	.
4E\	.	.	.	.	.
!	!	!LO:TX:t=P:problem:kreska pseudotaktowa	!	!	!
4F\	.	2d\	.	.	.
!LO:TX:t=P:problem:kreska pseudotaktowa	!	!	!	!	!
4G\)	.	.	.	.	.
=28-	=28-	=28-	=28-	=28-	=28-
2.A\	.	4A\	.	0ryy	0ryy
.	.	4B\	.	.	.
.	.	4c\	.	.	.
!LO:TX:t=P:problem:kreska pseudotaktowa	!	!	!	!	!
4A\	-mi-	4d\	.	.	.
2E,\	-nem	4e\	.	.	.
.	.	4B\	.	.	.
!LO:TX:t=P:problem:kreska pseudotaktowa	!	!	!	!	!
2E\	et	1e\	.	.	.
=29-	=29-	=29-	=29-	=29-	=29-
2F\	Ho-	.	.	0ryy	0ryy
!LO:TX:t=P:problem:kreska pseudotaktowa	!	!LO:TX:t=P:problem:kreska pseudotaktowa	!	!	!
2F\	-mi-	2d\	-mi-	.	.
2C,/	-nem	2c,\	-nem	.	.
1c\	ge-	2g\	et	.	.
=30-	=30-	=30-	=30-	=30-	=30-
.	.	2f\	Ho-	0ryy	0ryy
!LO:TX:t=P:problem:kreska pseudotaktowa	!	!	!	!	!
2B\	.	2d\	-mi-	.	.
2A\	.	2c,\	-nem	.	.
!LO:TX:t=P:problem:kreska pseudotaktowa	!	!	!	!	!
2G\	.	2B\	ge-	.	.
=31-	=31-	=31-	=31-	=31-	=31-
!LO:TX:t=P:problem:kreska pseudotaktowa	!	!LO:TX:t=P:problem:kreska pseudotaktowa	!	!	!
1F	.	1A	-nui-	0ryy	0ryy
!LO:TX:t=P:problem:kreska pseudotaktowa	!	!	!	!	!
1G	-nui-	2B\	.	.	.
.	.	1d\	.	.	.
=32-	=32-	=32-	=32-	=32-	=32-
1A	-ſti	.	.	0ryy	0ryy
!	!	!LO:TX:t=P:problem:kreska pseudotaktowa	!	!	!
.	.	2c#X\	.	.	.
!LO:TX:t=P:problem:kreska pseudotaktowa	!	!	!	!	!
1D,	.	2d,\	-sti	.	.
.	.	1d\	et	.	.
=33-	=33-	=33-	=33-	=33-	=33-
0r	.	.	.	0ryy	0ryy
.	.	2d\	post	.	.
.	.	2B\	par-	.	.
!	!	!LO:TX:t=P:problem:kreska pseudotaktowa	!	!	!
.	.	2G/	-t(um)	.	.
=34-	=34-	=34-	=34-	=34-	=34-
!LO:TX:t=P:problem:kreska pseudotaktowa	!	!	!	!	!
1r	.	(>2B\	Vir-	0ryy	0ryy
.	.	2c#X\)	.	.	.
2r	.	2d,\	-go	.	.
1G\	et	1B\	et	.	.
=35-	=35-	=35-	=35-	=35-	=35-
.	.	.	.	0ryy	0ryy
!	!	!LO:TX:t=P:problem:kreska pseudotaktowa	!	!	!
!LO:TX:t=P:problem:kreska pseudotaktowa	!	!LO:SIC:v:t=custos c	!	!	!
2G\	post	2B\	post	.	.
!	!	!LO:LB:g=original	!	!	!
!LO:TX:t=P:problem:w źródle widoczna jest również laska w górę:problem	!	!	!	!	!
2E\	par-	2cny\	par-	.	.
!LO:TX:t=P:problem:kreska pseudotaktowa	!	!	!	!	!
!LO:SIC:v:t=custos E	!	!LO:TX:t=P:problem:kreska pseudotaktowa	!	!	!
2C/	-tum	2c\	-tum	.	.
!LO:LB:g=original	!	!	!	!	!
=36-	=36-	=36-	=36-	=36-	=36-
2E\	Vir-	1c	Vir-	0ryy	0ryy
!LO:TX:t=P:problem:kreska pseudotaktowa	!	!	!	!	!
2F#X\	.	.	.	.	.
2G,\	-go	2B,\	-go	.	.
!LO:TX:t=P:problem:kreska pseudotaktowa	!	!	!	!	!
2G\	in-	2B\	in-	.	.
=37-	=37-	=37-	=37-	=37-	=37-
2E\	-vio-	2G/	-vio-	0ryy	0ryy
!LO:TX:t=P:problem:kreska pseudotaktowa	!	!	!	!	!
2A\	-la-	2c\	-la-	.	.
2G\	.	2B\	.	.	.
!LO:TX:t=P:problem:kreska pseudotaktowa	!	!LO:TX:t=P:problem:kreska pseudotaktowa	!	!	!
2Fny\	.	2A\	.	.	.
=38-	=38-	=38-	=38-	=38-	=38-
4E\	.	4G/	.	0ryy	0ryy
4D\	.	4F/	.	.	.
4E\	.	4G/	.	.	.
!LO:TX:t=P:problem:kreska pseudotaktowa	!	!	!	!	!
4C/	.	4A/	.	.	.
2G\	-ta	4B\	.	.	.
.	.	4A\	.	.	.
2G\	per-	4B\	.	.	.
.	.	4c\	.	.	.
=39-	=39-	=39-	=39-	=39-	=39-
!LO:TX:t=P:problem:kreska pseudotaktowa	!	!	!	!	!
1G	-man-	2d\	.	0ryy	0ryy
!	!	!LO:TX:t=P:problem:kreska pseudotaktowa	!	!	!
.	.	2c\	.	.	.
!LO:TX:t=P:problem:kreska pseudotaktowa:między nutami połączonymi ligaturą	!	!	!	!	!
[<0G	-si-	2B\	-ta	.	.
!	!	!LO:TX:t=P:problem:kreska pseudotaktowa	!	!	!
.	.	2r	.	.	.
=40-	=40-	=40-	=40-	=40-	=40-
.	.	2rc	.	0ryy	0ryy
.	.	2d\	in-	.	.
0G]	.	2B\	-vio-	.	.
.	.	2e\	-la-	.	.
=41-	=41-	=41-	=41-	=41-	=41-
.	.	2d\	.	0ryy	0ryy
!	!	!LO:TX:t=P:problem:kreska pseudotaktowa	!	!	!
.	.	2c\	.	.	.
1G	.	4B\	.	.	.
.	.	4A\	.	.	.
.	.	4B\	.	.	.
.	.	4G/	.	.	.
=42-	=42-	=42-	=42-	=42-	=42-
!LO:TX:t=P:problem:kreska pseudotaktowa	!	!	!	!	!
1C	-ſti,	2c\	.	0ryy	0ryy
.	.	2c,\	-ta	.	.
!LO:TX:t=P:problem:kreska pseudotaktowa	!	!	!	!	!
00r	.	1c	per-	.	.
=43-	=43-	=43-	=43-	=43-	=43-
!	!	!LO:TX:t=P:problem:kreska pseudotaktowa:między nutami połączonymi ligaturą	!	!	!
.	.	[<0c	-man-	0ryy	0ryy
=44-	=44-	=44-	=44-	=44-	=44-
.	.	0c]	.	0ryy	0ryy
2r	.	.	.	.	.
1C/	De-	.	.	.	.
=45-	=45-	=45-	=45-	=45-	=45-
.	.	1c	-si-	0ryy	0ryy
!LO:TX:t=P:problem:kreska pseudotaktowa	!	!	!	!	!
2E\	-i	.	.	.	.
!	!	!LO:TX:t=P:problem:kreska pseudotaktowa	!	!	!
!	!	!LO:TX:b:t=Cito -	!	!	!
!	!	!LO:SIC:v:t=custos G	!	!	!
2F\	Ge-	1F	-ſti	.	.
!LO:TX:t=P:problem:kreska pseudotaktowa	!	!	!	!	!
2D\	-ni-	.	.	.	.
!	!	!LO:PB:g=original	!	!	!
=46-	=46-	=46-	=46-	=46-	=46-
2C,/	-trix	2r	.	0ryy	0ryy
1C	in-	1G	De-	.	.
!LO:TX:t=P:problem:kreska pseudotaktowa	!	!LO:TX:t=P:problem:kreska pseudotaktowa	!	!	!
2BB/	-ter-	2B\	-i	.	.
=47-	=47-	=47-	=47-	=47-	=47-
4AA/	-ce-	2c\	Ge-	0ryy	0ryy
4BB/	.	.	.	.	.
4C/	.	2A/	-ni-	.	.
!LO:TX:t=P:problem:kreska pseudotaktowa	!	!	!	!	!
4D/	.	.	.	.	.
2E\	.	2G,/	-trix	.	.
1F\	.	1A\	in-	.	.
=48-	=48-	=48-	=48-	=48-	=48-
.	.	.	.	0ryy	0ryy
!LO:TX:t=P:problem:kreska pseudotaktowa	!	!LO:TX:t=P:problem:kreska pseudotaktowa	!	!	!
2E\	.	2c\	-ter-	.	.
4D\	.	1d	-ce-	.	.
4E\	.	.	.	.	.
4F\	.	.	.	.	.
!LO:TX:t=P:problem:kreska pseudotaktowa	!	!	!	!	!
4G\	.	.	.	.	.
=49-	=49-	=49-	=49-	=49-	=49-
2A\	.	2A,\	-de	0ryy	0ryy
!LO:TX:t=P:problem:kreska pseudotaktowa	!	!	!	!	!
!LO:SIC:v:t=custos G	!	!	!	!	!
2E\	.	1c	pro	.	.
!LO:LB:g=original	!	!	!	!	!
2G,\	-de	.	.	.	.
!LO:TX:t=P:problem:kreska pseudotaktowa	!	!	!	!	!
2G\	pro	2B\	.	.	.
=50-	=50-	=50-	=50-	=50-	=50-
!LO:TX:t=P:problem:kreska pseudotaktowa	!	!	!	!	!
1F	no-	4A\	no-	0ryy	0ryy
.	.	4B\	.	.	.
.	.	4c\	.	.	.
!	!	!LO:TX:t=P:problem:kreska pseudotaktowa	!	!	!
.	.	4d\	.	.	.
!LO:TX:t=P:problem:kreska pseudotaktowa	!	!	!	!	!
1E	.	2e\	.	.	.
.	.	2c\	.	.	.
=51-	=51-	=51-	=51-	=51-	=51-
1D	.	1d	.	0ryy	0ryy
2C,/	-bis	2G/	-bis	.	.
!LO:TX:t=P:problem:kreska pseudotaktowa	!	!LO:TX:t=P:problem:kreska pseudotaktowa	!	!	!
2F\	in-	2r	.	.	.
=52-	=52-	=52-	=52-	=52-	=52-
(>2E\	-ter-	1r	.	0ryy	0ryy
!LO:TX:t=P:problem:kreska pseudotaktowa	!	!	!	!	!
2F\)	-ce-	.	.	.	.
2C/	-de	2r	.	.	.
!LO:TX:t=P:problem:kreska pseudotaktowa	!	!LO:TX:t=P:problem:kreska pseudotaktowa	!	!	!
2r	.	2c\	in-	.	.
=53-	=53-	=53-	=53-	=53-	=53-
1rB	.	2B\	-ter-	0ryy	0ryy
.	.	2c\	-ce-	.	.
2r	.	2G,/	-de	.	.
1E\	in-	1c\	pro	.	.
=54-	=54-	=54-	=54-	=54-	=54-
.	.	.	.	0ryy	0ryy
!LO:TX:t=P:problem:kreska pseudotaktowa	!	!LO:TX:t=P:problem:kreska pseudotaktowa	!	!	!
2F\	-ter-	2A\	.	.	.
!LO:TX:t=P:problem:kreska pseudotaktowa	!	!	!	!	!
0G	-ce-	2B\	no-	.	.
.	.	1c\	.	.	.
=55-	=55-	=55-	=55-	=55-	=55-
.	.	.	.	0ryy	0ryy
.	.	2B\	.	.	.
!	!	!LO:TX:t=P:problem:kreska pseudotaktowa	!	!	!
2C,/	-de	1c	-bis	.	.
1F\	pro	.	.	.	.
=56-	=56-	=56-	=56-	=56-	=56-
.	.	1c	pro	0ryy	0ryy
!LO:TX:t=P:problem:kreska pseudotaktowa	!	!	!	!	!
2E\	.	.	.	.	.
1F	no-	1c	no-	.	.
=57-	=57-	=57-	=57-	=57-	=57-
0C;>	-bis.	0c;>	-bis.	0ryy	0ryy
==	==	==	==	==	==
*-	*-	*-	*-	*-	*-
!!!system-decoration: [(s1,s2,s3,s4)]
!!!RDF**kern: > = above
!!!RDF**kern: < = below
!!!RDF**kern: l = terminal long
!!!EED: Mateusz Mrugas
!!!EST: 2021-03-20
!!!ENC: Andrzej Borzym
!!!END: 2021-03-04
